X: 35828
T: Saltón De Samartín
R: three-two
M: 3/2
K: Bminor
[M:3/4]|:B2B2Bc|dBc4|d2d2de|fde4|
a2a2a2|gfe4|f2 f2 f2|1 edc4:|2 edc3A||
M:4/4
|:dcde fgfd|1 edce d3 A:|2 edce d3e||
fg2g g2Be|fg2g g2 ag|faeg f3 f|
|:gfeg fe df|1 edce d3 f:|2 edce d4||

